X:714
T:The lady on the boat
R:Jig
B:New England Fiddler's Repertoire
S:New England Fiddler's Repertoire
Z:Transcription, chords:Mike Long
M:6/8
L:1/8
K:D
"D"dfA d2A|dfA d2f|a2f fed|"A"efe ecA|\
"D"dfA d2A|dfA d2f|"D"a2f "A"efe|"D"d3 d2A:|
|:"D"f3 "G"gfg|"D"a3 f2g|a2f fed|"A"efe ecA|\
"D"f3 "G"gfg|"D"a3 f2g|"D"agf "A"gec|"D"ded d3:|
